Adwaita++-Dark/actions/22/adjustcurves.svg

<svg height="22" viewBox="0 0 22 22" width="22" xmlns="http://www.w3.org/2000/svg">
  <g fill="#e6ddff">
    <path d="m4 16v-12.99998h2v7.49998 2.375 3.125h13v2h-13v1h-2v-1h-1v-2z"/>
    <path d="m5.53033 13.5303 4.09494-4.09491 3.55963 2.03411 5.8151-7.26892v-1.20058h-.9605l-5.2244 6.53053-3.44037-1.96592-4.90506 4.90509z"/>
  </g>
</svg>

<svg width="22" height="22" viewBox="0 0 22 22" xmlns="http://www.w3.org/2000/svg">
    <path d="M4 16V3.00002H6V10.5V12.875V16H19V18H6V19H4V18H3V16H4Z" fill="#E6DDFF"/>
    <path d="M5.53033 13.5303L9.62527 9.43539L13.1849 11.4695L19 4.20058L19 3L18.0395 3L12.8151 9.53053L9.37473 7.56461L4.46967 12.4697L5.53033 13.5303Z" fill="#E6DDFF"/>
</svg>
